X: 22937
T: Larry Reynolds' Fancy
R: jig
M: 6/8
K: Fmajor
|d|cAF FAc|fga gfg|afd dfd|cFG AGG|cAF F2 c|
fga gfg|afc dfd|cAF F2:|b|Tagf fcA|cdc cfa|
bgg Tgfg|afa gec|agf fcA|cdc cfa|bag agf|cde f2:|

